X:1
T:Title
%%score [ 1 2 3 4 ]
L:1/8
Q:1/4=120
M:4/4
K:F
V:1 treble nm="MusicXML Part"
V:2 treble nm="MusicXML Part"
V:3 treble nm="MusicXML Part"
V:4 bass nm="MusicXML Part"
V:1
"^Du lieber Herre Jesu Christ" d4 d2 c2 | A4 B2 d2- | d2 ^c2 d4 | z2 d2 d2 c2 | %4
w: 1. Du lie- ber|Her- re Je|* su Christ,|du lie- ber|
w: 2. Du hast er-|wählt und aus|* ge- sandt,|du hast er-|
w: 3. Lehr uns kom-|men zur wah|* ren Buß,|lehr uns kom-|
"^Joachim a Burgk (1540-1616)""^Text: Ludwig Helmbold (bis 1598)" A4 B2 d2- | d2 ^c2 d4 | %6
w: Her- re Je|* su Christ,|
w: wählt und aus|* ge- sandt|
w: men zur wah|* ren Buß,|
[M:4/4] z2 B2 B2 B2 | c4 B2 (A2- | AG G4) ^F2 | G4 z2 A2 | B4 c2 d2- | d2 d2 _e2 e2 | d4 f4 | %13
w: des Va- ters|e- wig Wort|* * * du|bist, du|hast aus sei|* nem Schoß ge-|bracht das|
w: dei- ne Die-|ner in al|* * * le|Land, auch|zu uns noch|* auf die- sen|Tag, dir|
w: durch dich wer-|den von Sün|* * * den|los, re-|gier uns all|* mit die- nem|Geist, und|
 d4 c2 B2- | B2 c4 B2- | B2 A2 B4 | z2 d2 d2 d2 | f4 d2 (e2- | ed d4) ^c2 | d8 |] %20
w: Wort, wel- ches|* uns se|* lig macht,|das Wort, wel-|ches uns se|* * * lig|macht.|
w: sei drum Lob|* und Preis|* ge- sagt,|dir sei drum|Lob und Preis|* * * ge-|sagt.|
w: sei in E|* wig- keit|* ge- preist,|und sei in|E- wig- keit|* * * ge-|preist.|
V:2
 B4 B2 G2 | ^F4 G2 A2- | A2 A2 ^F4 | B4 B2 G2 | ^F4 G2 A2- | A2 A2 ^F4 |[M:4/4] z2 G2 G2 G2 | %7
 G4 F4 | D4 D4 | D4 z2 ^F2 | D4 F2 F2- | F2 F2 _E2 C2 | F4 z2 F2 | B4 A2 G2- | G2 G2 F4- | %15
 F2 F2 F4 | z2 B2 A2 B2 | c4 B4 | A6 A2 | A8 |] %20
V:3
 g4 f2 _e2 | d4 d2 ^f2- | f2 e2 d4 | g4 f2 _e2 | d4 d2 f2- | f2 e2 d4 |[M:4/4] z2 d2 d2 d2 | %7
w: 1. Du lie- ber|Her- re Je|* su Christ,|du lie- ber|Her- re Je|* su Christ,|des Va- ters|
w: 2. Du hast er-|wählt und aus|* ge- sandt,|du hast er-|wählt und aus|* ge- sandt|dei- ne Die-|
w: 3. Lehr uns kom-|men zur wah|* ren Buß,|lehr uns kom-|men zur wah|* ren Buß,|durch dich wer-|
 _e4 d4 | B4 A4 | G4 z2 d2 | B4 A2 B2- | B2 F2 G2 A2 | B4 d4 | f4 f2 d2- | d2 _e2 d4 | c4 d4 | %16
w: e- wig|Wort du|bist, du|hast aus sei|* nem Schoß ge-|bracht das|Wort, wel- ches|* uns se-|lig macht,|
w: ner in|al le|Land, auch|zu uns noch|* auf die- sen|Tag, dir|sei drum Lob|* und Preis|ge- sagt,|
w: den von|Sün den|los, re-|gier uns all|* mit die- nem|Geist, und|sei in E|* wig- keit|ge- preist,|
 z2 g2 ^f2 g2 | a4 g4 | f4 e4 | d8 |] %20
w: das Wort, wel-|ches uns|se- lig|macht.|
w: dir sei drum|Lob und|Preis ge-|sagt.|
w: und sei in|E- wig-|keit ge-|preist.|
V:4
 G,4 B,2 C2 | D4 G,2 D,2- | D,2 A,2 D,4 | z2 G,2 B,2 C2 | D4 G,2 D,2- | D,2 A,2 D,4 | %6
[M:4/4] z2 G,2 G,2 G,2 | C,4 D,4 | G,4 D,4 | G,4 z2 D,2 | G,4 F,2 B,,2- | B,,2 D,2 C,2 C,2 | %12
 B,,4 B,4 | B,4 F,2 G,2- | G,2 _E,2 F,4 | F,4 B,4 | z2 G,2 D,2 G,2 | F,4 G,4 | A,4 A,4 | D,8 |] %20

